!!!!SEGMENT: pl-wn--mus-iii-123-982--010_wieniawski-henryk--l-ecole-moderne-etudes-caprices-pour-violon-seul-op-10-exercices-en-trilles.krn
!!!cenid: 18xx:3823
!!!COM: Wieniawski, Henryk
!!!COM-rismID: pe137176
!!!CDT: 1835/07/10-1880/03/31
!!!CNT:
!!!GTL: L'école moderne.Etudes-caprices pour violon seul op. 10
!!!OTL: Exercices en trilles
!!!PDT:
!!!AGN:
!!!SMS-siglum: PL-Wn
!!!SMS-shelfmark: Mus.III.123.982
!!!SMS-shelfwork: 010 G
!!!SMS-variant:
!!!SMS-altvar:
!!!NIFC-rismSourceID:
!!!NIFC-rismChildID:
!!!NIFC-islandoraID: none
!!!URL-pdf-islandora:
!!!URL-scan: https://polona.pl/item/l-ecole-moderne-etudes-caprices-pour-violon-seul-op-10,MTE2OTgzMTMy/4 @EN{Scan on Polona} @PL{Skany w portalu Polona}
!!!ONB-nifc: UWAGA: jedna pięciolinia na skanie 28
!!!AIN: 1 violn
!!!key: G
**kern	**fing
*I"Violon	*
*mI"Violino	*
*I'	*
*mI'vn	*
*Ivioln	*
*ICstr	*
*clefG2	*
*k[f#]	*
*G:	*
*M4/4	*
*met(c)	*
=1	=1
*^	*
*xywh-25:120,2854,3710,942	*xywh-25:120,2854,3710,942	*
[1ccT	1r	1_ 2_
=2	=2	=2
*	*	*^
1ccT_	(4d\	_ _	.
.	4a\)	_ _	.
.	(4a\	_ _	.
.	4g\)	1 3	2
=3	=3	=3	=3
1ccT_	(4g\	1 3	2
.	4f#\)	1 3	2
.	2r	.	.
*	*	*v	*v
=4	=4	=4
1ccT_	(4d\	.
.	4cc\)	.
.	(4cc\	.
.	4b\)	.
=5	=5	=5
1ccT_	(4b\	.
.	4a\)	.
.	4r	.
.	8r	.
.	8d\	.
=6	=6	=6
*	*^	*
8rgg	1ccT>_	8e-X\	.
8gg/L	.	8rc	.
8gg/	.	4rc	.
8gg/J	.	.	.
8gg/L	.	4rc	.
8ff#X/J	.	.	.
8ree	.	8rc	.
8ree	.	8d\	.
=7	=7	=7	=7
8rgg	1ccT>_	8e-X\L	.
8gg/L	.	8e-\	.
8gg/	.	8e-\	.
8gg/J	.	8e-\J	.
8gg/L	.	8e-\L	.
8ff#X/J	.	8d\J	.
4ree	.	4rc	.
*v	*v	*v	*
=8	=8
2ccT\]	.
!LO:TX:b:i:t=etc.	!
4eee\	0
==	==
*-	*-
!!!RDF**kern: > = above
!!!filter-modern: autostem -r | shed -k -e “s/([^a-gA-Gn#X-])[<>]/$1/g” | modori -m
!!!ENC: Andrzej Kubiczek
!!!END: 2022-05-09
!!!ENC: Andrzej Kubiczek
!!!END: 2022-05-09
!!!ENC-modern: Leszek Kubiak
!!!END-modern: 2022-07-19
!!!IIIF: https://polona.pl/iiif/item/MTE2OTgzMTMy/manifest.json
!!!ENC-iiif: Natalia Wrzos
!!!END-iiif: 2022-08-30
!!!YEC: Copyright 2022 Narodowy Instytut Fryderyka Chopina (https://polishscores.org)
!!!YEM: License CC-BY-4.0 (https://creativecommons.org/licenses/by/4.0)
